X: 37
T:Four Marys
R:
M:3/4
L:1/4
K:A
F|F2E|DFA|B3|A2D|F2F|A2F|E3-|E2A|
d2d|ccA|B2A|DDE|FAF|EFE|D3-|D2||
